src/lib/packages/icons/src/assets/line/user-clock.svg

<svg width="24" height="24" viewBox="0 0 24 24" fill="none" xmlns="http://www.w3.org/2000/svg">
<path d="M10.009 10.75C12.353 10.75 14.259 8.843 14.259 6.5C14.259 4.157 12.353 2.25 10.009 2.25C7.66503 2.25 5.75903 4.157 5.75903 6.5C5.75903 8.843 7.66503 10.75 10.009 10.75ZM10.009 3.75C11.526 3.75 12.759 4.983 12.759 6.5C12.759 8.017 11.526 9.25 10.009 9.25C8.49203 9.25 7.25903 8.017 7.25903 6.5C7.25903 4.983 8.49203 3.75 10.009 3.75ZM12.881 13.8101C12.629 13.7691 12.341 13.75 12 13.75H8C4.057 13.75 3.75 17.019 3.75 18.02C3.75 19.583 4.423 20.25 6 20.25H11C11.414 20.25 11.75 20.586 11.75 21C11.75 21.414 11.414 21.75 11 21.75H6C3.582 21.75 2.25 20.425 2.25 18.02C2.25 15.358 3.756 12.25 8 12.25H12C12.421 12.25 12.787 12.276 13.119 12.33C13.528 12.395 13.807 12.78 13.74 13.189C13.675 13.598 13.279 13.8751 12.881 13.8101ZM18 13.25C15.381 13.25 13.25 15.381 13.25 18C13.25 20.619 15.381 22.75 18 22.75C20.619 22.75 22.75 20.619 22.75 18C22.75 15.381 20.619 13.25 18 13.25ZM18 21.25C16.208 21.25 14.75 19.792 14.75 18C14.75 16.208 16.208 14.75 18 14.75C19.792 14.75 21.25 16.208 21.25 18C21.25 19.792 19.792 21.25 18 21.25ZM19.6021 18.541C19.8951 18.833 19.8951 19.3091 19.6021 19.6021C19.4561 19.7481 19.264 19.822 19.072 19.822C18.88 19.822 18.688 19.7491 18.542 19.6021L17.4709 18.531C17.3299 18.39 17.251 18.2 17.251 18.001V16.501C17.251 16.087 17.587 15.751 18.001 15.751C18.415 15.751 18.751 16.087 18.751 16.501V17.6899L19.6021 18.541Z" fill="currentColor"/>
</svg>

<svg xmlns="http://www.w3.org/2000/svg" width="24" height="24" fill="none"><path fill="currentColor" d="M10.009 10.75a4.255 4.255 0 0 0 4.25-4.25 4.255 4.255 0 0 0-4.25-4.25 4.255 4.255 0 0 0-4.25 4.25 4.255 4.255 0 0 0 4.25 4.25Zm0-7a2.752 2.752 0 0 1 2.75 2.75 2.752 2.752 0 0 1-2.75 2.75 2.752 2.752 0 0 1-2.75-2.75 2.752 2.752 0 0 1 2.75-2.75Zm2.872 10.06a5.514 5.514 0 0 0-.881-.06H8c-3.943 0-4.25 3.269-4.25 4.27 0 1.563.673 2.23 2.25 2.23h5a.75.75 0 0 1 0 1.5H6c-2.418 0-3.75-1.325-3.75-3.73 0-2.662 1.506-5.77 5.75-5.77h4c.421 0 .787.026 1.119.08.409.065.688.45.621.859a.755.755 0 0 1-.859.621ZM18 13.25A4.756 4.756 0 0 0 13.25 18 4.756 4.756 0 0 0 18 22.75 4.756 4.756 0 0 0 22.75 18 4.756 4.756 0 0 0 18 13.25Zm0 8A3.254 3.254 0 0 1 14.75 18 3.254 3.254 0 0 1 18 14.75 3.254 3.254 0 0 1 21.25 18 3.254 3.254 0 0 1 18 21.25Zm1.602-2.709a.75.75 0 0 1-1.06 1.061l-1.071-1.071a.748.748 0 0 1-.22-.53v-1.5a.75.75 0 0 1 1.5 0v1.189l.851.851Z"/></svg>
